!!!OTL: DER KUCKUK AUF DEM ZAUNE SASS
!!!ARE: Europa, Mitteleuropa, Deutschland
!!!SCT: E0881
!!!YEM: Copyright 1995, estate of Helmut Schaffrath.
**kern
*ICvox
*Ivox
*M6/8
*k[f#c#g#]
*A:
{8e
=1
4a
8a
8cc#
8b
8a
=2
4b
8g#
4a}
{8ee
=3
4cc#
8ee
4b
8ee
=4
8a
8a
8g#
4a}
{8cc#
=5
4b
8b
4g#
8b
=6
8a
8g#
8f#
4e}
{8e
=7
4a
8a
4b
8b
=8
4.cc#
8ee
8dd}
{8b
=9
4a
8a
8cc#
8cc#
8b
=10
4a
4.r}
==
!!!AGN: Hochzeits -, Ehestands - Lied
!!!ONB: ESAC (Essen Associative Code) Database: ERK2
!!!AMT: compound duple
!!!AIN: vox
!!!EED: Helmut Schaffrath
!!!EEV: 1.0
*-
